app/component-library/components/Icons/Icon/assets/menu.svg

<svg width="24" height="24" viewBox="0 0 24 24" fill="none" xmlns="http://www.w3.org/2000/svg">
<path d="M21.5115 7.56522H3.04999C2.62948 7.56522 2.28076 7.21043 2.28076 6.78261C2.28076 6.35478 2.62948 6 3.04999 6H21.5115C21.932 6 22.2808 6.35478 22.2808 6.78261C22.2808 7.21043 21.932 7.56522 21.5115 7.56522Z" fill="currentColor"/>
<path d="M21.5115 12.7826H3.04999C2.62948 12.7826 2.28076 12.4278 2.28076 12C2.28076 11.5722 2.62948 11.2174 3.04999 11.2174H21.5115C21.932 11.2174 22.2808 11.5722 22.2808 12C22.2808 12.4278 21.932 12.7826 21.5115 12.7826Z" fill="currentColor"/>
<path d="M21.5115 18H3.04999C2.62948 18 2.28076 17.6452 2.28076 17.2174C2.28076 16.7896 2.62948 16.4348 3.04999 16.4348H21.5115C21.932 16.4348 22.2808 16.7896 22.2808 17.2174C22.2808 17.6452 21.932 18 21.5115 18Z" fill="currentColor"/>
</svg>

<svg xmlns="http://www.w3.org/2000/svg" width="24" height="24" viewBox="0 0 24 24" fill="none"><path d="M21.512 7.565H3.05a.782.782 0 0 1-.77-.782c0-.428.35-.783.77-.783h18.462c.42 0 .769.355.769.783a.782.782 0 0 1-.77.782zM21.512 12.783H3.05A.782.782 0 0 1 2.28 12c0-.428.35-.783.77-.783h18.462c.42 0 .769.355.769.783a.782.782 0 0 1-.77.783zM21.512 18H3.05a.782.782 0 0 1-.77-.783c0-.427.35-.782.77-.782h18.462c.42 0 .769.355.769.782a.782.782 0 0 1-.77.783z" fill="currentColor"/></svg>
